X:1
T:Drømmen om "Glade Jul"
T:Drømmen om "Glade Jul"
T:CNW 85
T:Carl Nielsen
C:Carl Nielsen
%%score { ( 1 2 ) | ( 3 4 ) }
L:1/8
Q:1/4=50
M:6/8
K:E
V:1 treble nm="Piano" snm="Pno."
V:2 treble 
V:3 bass 
V:4 bass 
V:1
"^Poco adagio"!pp! (B>cB G3) | (B>cB!<(! G3)!<)! |!mp! (e3 d2 c | B^A"_dim."G A3) | %4
!ppp! (d>^ed ^B3) | (d>!<(!^ed ^B2) =B-!<)! |!f! [GB]/(b^a/e'/e/- e/=ag/^c'/^c/- | %7
"_dim." c/^B/e/=B/"^rall."d/B/!>(! =d/^A/c/B/=c/=A/)!>)! | %8
!pp!"^a tempo"{/GA} (G/F/E/F/G/A/ B/c/d/e/f/b/ |{/ga} g/f/e/f/g/a/ b/c'/=d'/c'/d'/^b/ | %10
 c'/)!<(!(!>!e'f'/4e'/4 ^d'/4e'/4a'/4=d'/4) (d'/4c'/4){/d'}.c'/4.^b/4 (c'- c'/4=b/4a/4g/4!<)! | %11
!f! a/4!>(!g/4f/4a/4 =g/4f/4g/4e/4 f- f/4)(e/4=d/4c/4 d/4c/4d/4B/4 =c-!>)! | %12
!pp! c/4=d/4=c/4B/4 .c/)(c/- c/4e/4=g/4e/4 c2 T=G{FG)} | %13
 (=c/4=d/4c/4B/4 .c/)(=c'/- c'/4b/4=g/4e/4 a3/2"_dim."g/4f/4 T=f{ef)} | %14
!ppp! (e/4^f/4=g/4f/4 g/4f/4e/4f/4"_dim." g/4f/4g/4e/4!pppp! _e>)(!tenuto!_b!tenuto!g/!tenuto!e/) | %15
!<(! (_a/4_b/4=c'/4b/4 c'/4b/4a/4b/4 a/4=g/4a/4g/4 (3^g/=a/b/ (3=c'/=d'/c'/{/bc'} (3b/a/b/)!<)! | %16
"_espress."!mf! (3(=c'/b/a/ c'>!>(!=d' e'/a'/e'/d'/c'/e'/ | %17
{/^d'e'} (3d'/^c'/b/"^rall." d'>e' f'/bf'a/)!>)! || %18
!pp![Q:1/4=40]"^Adagio" (3(g/f/e/ (3f/g/a/ (3g/e/g/!<(! (3b/e'/d'/ (3f'/!<)!e'/!>(!d'/{/c'd'} (3c'/b/a/!>)! | %19
!pp!!<(! (3g/f/e/ (3f/g/a/ (3b/)(g'/f'/ (3e'/d'/c'/ (3b/a/g/ (3.f/.e/.d/)!<)! | %20
"_espress."({/=de} (3d/c/B/ d>)(!>!f .e/)(!>!c'/.b/)(f'/e'/^d'/ | %21
{/=d'e'} (3d'/c'/b/ d'>)(!>!f' .e'/)(!>!f'/.e'/)(d'/c'/).d'/ | %22
{/c'=d'} (3(c'/b/a/ c'- (3c'/b/a/ =c'-"_poco rall." (3c'/b/a/ (3c'/b/a/ | %23
!<(! [ge']3)!<)!!>(! !>![ae']3!>)! |!ppp! !fermata![ge']6 |] %25
V:2
 E6 | E6 | ([EG]>^AG ^^F>GA | G^^F^E F3) | G6 | G6- | x6 | x6 | x6 | x6 | x6 | x6 | x6 | x6 | x6 | %15
 x6 | x6 | x6 || x6 | x6 | x6 | x6 | x6 | x6 | x6 |] %25
V:3
 G,3 (B,>CB, | G,3) (B,>CB,) | (C2 B, ^A,>B,E | D3) (D>^ED) | ^B,3 (D>^ED | ^B,3) (D>^ED | %6
 =D C2 =C B,2 | A,G,=G, F,2) z | (B,,>C,B,, G,,3) | (B,>CB, G,3) | %10
 (A,/C/=G,/B,/F,/A,/!ped! ^E,/^G,/C/^E/G/c/!ped-up! |[K:treble] F/=d/B/d/A/c/ =G/B/F/A/E/G/ | %12
 E/=G/E/G/E/G/ =F/A/E/G/=D/F/ | =C/=D/E/=G/E/G/ C/=c/B/_B/A/_A/) | %14
 (=G/=A/_B/G/A/B/) (G/4_A/4B/4A/4 B/4A/4G/4A/4 B/4A/4B/4G/4) | %15
!ped! (=C/_E/_A/=c/A/E/)!ped-up!!ped! (=B,/=D/^G/=d/G/D/)!ped-up! |"^poco marc." (A>BA F3) | %17
 (F>=GF D3) ||[K:bass] (B,>CB, G,3) | (B,>CB, G,3) | (B,,>C,B,, G,,3) |[K:treble] (B>cB G3) | %22
 (e>fe- e/f<ef/) | (B>cB) (c>B=c) | !fermata![EB]6 |] %25
V:4
 E,6 | E,6 | (C,3 D,3 | G,3 D,3) | G,6 | G,6 | (=E,6- | E,3 B,,2) x | E,,6 | E,6 | x6 | %11
[K:treble] x6 | x6 | x3 =C3 | (=C3 _D3) | x6 | [A,E]6 | B,6 ||[K:bass] E,6 | E,6 | E,,6 | %21
[K:treble] E6 | A6 | E3 E3 | x6 |] %25

